X:1
T:Title
%%score ( 1 2 ) ( 3 4 )
L:1/8
Q:1/4=95
M:6/8
K:Bb
V:1 treble nm="Grand Piano, Soprano"
V:2 treble 
V:3 bass nm="Choir Pad, Bass"
V:4 bass 
V:1
 F[Fd][Ec] [DB] [DF]2 | [DF] [EG]2 [DF] [DF]2 | [CF] [DB]2- [DB] [Fd]2 | [DB] [Ec]2- [Ec]3/2 z/ z | %4
w: By~Composer~Unknown * * * *||||
 F[Fd][Ec] [DB] [DF]2 | [DF] [EG]2 [EG] [DF]2 | [DF] [Fd]2- [Fd] [Ec]2- | %7
w: |||
 [Ec] [DB]2- [DB]3/2 z/ z | F [DB]2 [Fd] [DB]2 | [Fd]cd [Fe] [Fd]2 | [Fd]fd [FB] [EG]2 | %11
w: ||||
 [EG] [EF]2- [EF] [Ec]2- | [Ec] [DB]2- [DB]3- | [DB]3 z3 |] %14
w: |||
V:2
 x6 | x6 | x6 | x6 | x6 | x6 | x6 | x6 | x6 | z F2 z3 | z F2 z3 | x6 | x6 | x6 |] %14
V:3
 z [B,,B,]2- [B,,B,] [B,,B,]2- | [B,,B,] [E,B,]2 [F,B,] [F,A,]2 | z [B,,B,]2- [B,,B,] [B,,B,]2- | %3
 [B,,B,] [F,A,]2- [F,A,]3/2 z/ z | F, [B,,B,]2- [B,,B,] [B,,B,]2- | %5
 [B,,B,] [E,B,]2- [E,B,] [B,,B,]2- | [B,,B,] [B,,B,]2- [B,,B,] [F,A,]2- | %7
 [F,A,] [B,,B,]2- [B,,B,]3/2 z/ z | z6 | z .A,2 z3 | z6 | z6 | z6 | z6 |] %14
V:4
 x6 | x6 | x6 | x6 | x6 | x6 | x6 | x6 | z [B,,B,]2- [B,,B,] [B,,B,]2- | %9
 [B,,B,]F,-[F,-B,] [F,C-]/C/ [B,,B,]2- | [B,,B,] [D,B,]2- [D,B,] [E,B,]2- | %11
 [E,B,] [F,A,]2- [F,A,] [F,A,]2- | [F,A,] [B,,B,]2- [B,,B,]3- | [B,,B,]3 z3 |] %14

